src/assets/images/close.svg

<svg fill="none" height="48" viewBox="0 0 48 48" width="48" xmlns="http://www.w3.org/2000/svg"><path d="m24 21.172 9.9-9.9 2.828 2.828-9.9 9.9 9.9 9.9-2.828 2.828-9.9-9.9-9.9 9.9-2.828-2.828 9.9-9.9-9.9-9.9 2.828-2.828z" fill="#fff"/></svg>

<svg width="48" height="48" viewBox="0 0 48 48" fill="none" xmlns="http://www.w3.org/2000/svg">
<path d="M24 21.172L33.9 11.272L36.728 14.1L26.828 24L36.728 33.9L33.9 36.728L24 26.828L14.1 36.728L11.272 33.9L21.172 24L11.272 14.1L14.1 11.272L24 21.172Z" fill="white"/>
</svg>
